Resources/Public/Icons/software/browser-ie.svg

<?xml version="1.0" encoding="ISO-8859-1" standalone="no"?>
<!DOCTYPE svg PUBLIC "-//W3C//DTD SVG 1.1//EN" "http://www.w3.org/Graphics/SVG/1.1/DTD/svg11.dtd">
<svg xmlns="http://www.w3.org/2000/svg" xmlns:xlink="http://www.w3.org/1999/xlink" xml:space="preserve" width="16px" height="16px" viewBox="0 0 16 16" zoomAndPan="disable" preserveAspectRatio="xmaxYmax">
<path style="fill:#0078d7" d="m 5.2787464,9.4650095 c 0,0.3760185 0.056159,0.7178525 0.1709177,1.0255055 0.1220841,0.302768 0.2807933,0.573795 0.4834529,0.810638 0.2026595,0.236843 0.4395026,0.439503 0.7178543,0.610421 0.2685849,0.170917 0.5615867,0.312534 0.8741219,0.42241 0.3100935,0.112318 0.6348371,0.195335 0.964464,0.249052 0.3345104,0.05372 0.6592544,0.08057 0.9888807,0.08057 0.4150864,0 0.8008721,-0.03175 1.1671241,-0.09767 0.366252,-0.06837 0.722737,-0.158709 1.074339,-0.273468 0.351603,-0.114759 0.690996,-0.251493 1.03039,-0.407761 0.341835,-0.156267 0.688554,-0.327185 1.04504,-0.517636 l 0,3.31092 c -0.397994,0.195334 -0.788663,0.358927 -1.179333,0.500544 -0.390669,0.136735 -0.781337,0.256377 -1.179332,0.351602 -0.397994,0.09767 -0.800871,0.170917 -1.213515,0.214867 -0.4126443,0.04396 -0.8350547,0.06838 -1.2745578,0.06838 -0.5860034,0 -1.1524734,-0.06837 -1.6969683,-0.20266 C 6.7071299,15.476428 6.1968186,15.283535 5.718249,15.0296 5.2396795,14.775665 4.8026186,14.468014 4.4046245,14.106645 4.0041888,13.745276 3.6647952,13.337515 3.3791185,12.885804 3.0934417,12.434093 2.8736904,11.938432 2.7149811,11.406146 2.5611552,10.873859 2.4830214,10.307389 2.4830214,9.7067353 c 0,-0.6421621 0.0879,-1.2525829 0.2637016,-1.8361445 C 2.9249657,7.2845876 3.1764589,6.7523013 3.5085276,6.2639645 3.8381545,5.7756286 4.2410319,5.3410094 4.7171597,4.9625486 5.1932876,4.5840878 5.7280158,4.2739942 6.323786,4.0347095 5.9990424,4.3594535 5.7451075,4.7427974 5.5668648,5.1896254 5.3837387,5.634011 5.2689796,6.080839 5.2177044,6.5276661 l 5.5621496,0 c 0,-0.5615864 -0.05616,-1.0499223 -0.170918,-1.4698919 C 10.494178,4.6378055 10.311051,4.2886446 10.054675,4.0127351 9.8007403,3.7343831 9.4735547,3.5243983 9.0706771,3.3876639 8.6678,3.2484887 8.1819054,3.1776799 7.6129937,3.1776799 c -0.6714624,0 -1.3429248,0.097667 -2.014387,0.3003264 C 4.9271443,3.6733407 4.2898655,3.9541342 3.6843285,4.3081783 3.0787917,4.6671055 2.5220883,5.0895158 2.0142186,5.5729686 1.5063489,6.0613054 1.0790547,6.5862669 0.732336,7.1551781 0.80558644,6.4959246 0.95208731,5.861087 1.1547468,5.2579918 1.3574064,4.6548966 1.6259913,4.0933102 1.9482933,3.5732319 2.2705952,3.0604792 2.6490558,2.591676 3.0812333,2.1717072 3.5134109,1.7517375 3.9919804,1.3903688 4.5218253,1.0973672 5.0516701,0.8043656 5.6132568,0.56752247 6.2236771,0.40881286 6.8340974,0.2696377 7.4835846,0.18662003 8.1672553,0.18662003 c 0.4004357,0 0.7984299,0.0366244 1.1964234,0.10743445 0.3979944,0.0732478 0.7862213,0.17091758 1.1646823,0.29788477 0.752038,0.25881833 1.4235,0.62018725 2.014387,1.07922315 0.590888,0.4639192 1.086548,0.9913223 1.489426,1.5944175 0.402877,0.603096 0.708087,1.2696743 0.918072,1.9948535 0.209984,0.7251799 0.317418,1.4796591 0.317418,2.2634391 l 0,1.941137 -9.9889176,0 z"/>
</svg>

<svg xmlns="http://www.w3.org/2000/svg" width="16" height="16" zoomAndPan="disable" preserveAspectRatio="xmaxYmax"><path d="M5.28 9.465c0 .376.055.718.17 1.026.122.303.28.574.483.81.203.238.44.44.718.612.27.17.563.312.875.422.31.112.635.195.965.25.334.053.66.08.988.08.416 0 .8-.032 1.168-.098.366-.068.722-.16 1.074-.274.352-.114.69-.25 1.03-.407.342-.157.69-.327 1.045-.518v3.31c-.398.196-.788.36-1.18.502-.39.135-.78.255-1.178.35-.398.098-.8.17-1.214.215-.412.044-.835.068-1.274.068-.587 0-1.154-.068-1.698-.202-.545-.134-1.055-.326-1.534-.58-.478-.254-.915-.562-1.313-.923-.4-.362-.74-.77-1.026-1.22-.287-.453-.506-.95-.665-1.48-.154-.533-.232-1.1-.232-1.7 0-.642.088-1.253.264-1.836.178-.585.43-1.118.762-1.606.328-.488.73-.923 1.207-1.3.476-.38 1.01-.69 1.607-.93-.325.325-.58.71-.757 1.156-.183.444-.298.89-.35 1.338h5.563c0-.562-.056-1.05-.17-1.47-.116-.42-.3-.77-.555-1.045-.254-.28-.58-.49-.984-.625-.402-.14-.888-.21-1.457-.21-.67 0-1.343.097-2.014.3-.673.195-1.31.476-1.916.83-.605.36-1.162.782-1.67 1.265-.508.488-.935 1.013-1.282 1.582.074-.66.22-1.294.423-1.897.202-.603.47-1.165.793-1.685.323-.513.7-.98 1.133-1.4.433-.42.912-.783 1.442-1.076.53-.293 1.09-.53 1.702-.688.61-.14 1.26-.223 1.943-.223.4 0 .8.036 1.197.107.398.073.786.17 1.164.298.752.26 1.424.62 2.015 1.08.59.463 1.086.99 1.49 1.594.402.603.707 1.27.917 1.994.21.726.318 1.48.318 2.264v1.94h-9.99z" fill="#0078d7"/></svg>
